X: 9055
T: Da Foula Reel
R: jig
M: 6/8
K: Gmajor
D|:(EG)G G2e|edB BAB|G2B A2B|G2A GED|
(EG)G G2e|edB BAB|G2B A2B|d3 d3:|
|:edB ABd|edB BAG|{f}g2B A2B|G2A GED|
edB ABd|edB BAG|{f}g2B A2B|d3 d3|
|:edB ABd|edB BAG|{f}g2B A2B|G2A GED|
(EG)G G2e|edB BAB|G2B A2B|d3 d3|

